!!!SOCIAL_FUNCTION:	bird dance songs
!!!PDT:	1956
!!!OTL: No_163_Hair_Dance_Song_(a).krn
!!!LANG: Non-Tone
!!!LING_GROUP: Muskogean
!!!REG: Florida
**kern
*staff1
=1-
=
*clefF4
*k[]
*M3/4
4c\
12c\L
12A\
12G\J
4G\
=2
16A\LK
8.G\J
12A\L
12G\
12E\J
4E\
=3||
*M2/4
4C/
12D\L
12C\
12D\J
=4||
*M3/4
4C/
2r
=5||
*M2/4
4C/
12D/L
12C/
12BB/J
=6
4C/
4r
=7||
*M5/8
4C/
12D/L
12C/
12C/J
8C/
=8||
*M3/4
2c\
4r
=9:|!
*M2/4
4E\
4r
=10||
*M3/4
4C/
12C/L
12C/
12C/J
4C/
=11:|!
*M2/4
4C/
12C/L
12C/
12C/J
=12
4E\
4r
=13
2c\
==
*-
